src/library.svg

<svg xmlns="http://www.w3.org/2000/svg" viewBox="0 0 20 20"><path d="M0 6l10-6 10 6v2H0V6zm0 12h20v2H0v-2zm2-2h16v2H2v-2zm0-8h4v8H2V8zm6 0h4v8H8V8zm6 0h4v8h-4V8z"/></svg>

<?xml version="1.0" encoding="UTF-8" standalone="no"?>
<svg width="20px" height="20px" viewBox="0 0 20 20" version="1.1" xmlns="http://www.w3.org/2000/svg" xmlns:xlink="http://www.w3.org/1999/xlink">
    <!-- Generator: Sketch 3.7.2 (28276) - http://www.bohemiancoding.com/sketch -->
    <title>library</title>
    <desc>Created with Sketch.</desc>
    <defs></defs>
    <g id="Page-1" stroke="none" stroke-width="1" fill="none" fill-rule="evenodd">
        <g id="library" fill="#000000">
            <path d="M0,6 L10,0 L20,6 L20,8 L0,8 L0,6 Z M0,18 L20,18 L20,20 L0,20 L0,18 Z M2,16 L18,16 L18,18 L2,18 L2,16 Z M2,8 L6,8 L6,16 L2,16 L2,8 Z M8,8 L12,8 L12,16 L8,16 L8,8 Z M14,8 L18,8 L18,16 L14,16 L14,8 Z" id="Combined-Shape"></path>
        </g>
    </g>
</svg>
